X: 035
T: Four Seasons
B: 204 Favourite Country Dances
N: Published by Straight & Skillern, London ca.1775
F: http://imslp.org/wiki/204_Favourite_Country_Dances_(Various) p.18 #35
Z: 2014 John Chambers <jc:trillian.mit.edu>
N: All the start-repeat symbols are missing; fixed.
M: 6/8
L: 1/8
K: D
% - - - - - - - - - - - - - - - - - - - - - - - - -
!segno!aba |\
fdf agf | e2A d2A | e2A fge | d2D aba |\
fdf agf | e2A d2A | e2A fge | Hd2 :|
|: [FA,3]GF |\
[EA,6]FG GFE | [F2A,6]A FGF | [EA,6]FG GFE | F2D !segno!:|\
|: ABA |\
d2z ABA | F2z ABA | GAG EFG | F2D !segno!:|
% - - - - - - - - - - - - - - - - - - - - - - - - -
%%begintext align
%% The 1st & 2d Cu. set & change sides, the same back
%% again, gallop down the middle 2 Cu. up again &
%% cast off, the Man fall in the bott: the Lady at top,
%% set 3 & 3 fall in sides, set 3 & 3 hands 6 quite
%% round, Balance, Rigadoon to your Partner and
%% Allemand, the same back again.
%%endtext

%%sep 1 1 500
%%sep 1 1 500
